www/source/img/svg/speedometer.svg

<svg width="70" height="70" viewBox="0 0 70 70" fill="none" xmlns="http://www.w3.org/2000/svg">
<path d="M32.7054 44.8487L47.5465 25.4976L37.4687 47.7098C36.8309 49.1153 35.1731 49.7387 33.7676 49.0998C32.3609 48.4609 31.7398 46.802 32.3776 45.3953C32.4654 45.2009 32.5809 45.0109 32.7054 44.8487Z" fill="#FF6D1C"/>
<path d="M64.0478 61.2087H5.95444C5.37444 61.2087 4.83667 60.9076 4.53222 60.4131C1.61 55.6398 0 49.6353 0 43.4998C0 24.362 15.7011 8.79199 35.0011 8.79199C54.2989 8.79199 70 24.4087 70 43.6042C70 49.7598 68.4333 55.572 65.4689 60.412C65.1656 60.9076 64.6267 61.2087 64.0478 61.2087ZM6.90778 57.8731H63.0944C65.4344 53.7209 66.6667 48.8087 66.6667 43.6042C66.6667 26.2475 52.4622 12.1264 35.0011 12.1264C17.5389 12.1275 3.33333 26.1998 3.33333 43.4998C3.33333 48.6875 4.59778 53.7531 6.90778 57.8731Z" fill="#FF6D1C"/>
<path d="M35.0768 19.5131C34.1568 19.5131 33.4102 18.7665 33.4102 17.8454V11.1731C33.4102 10.252 34.1568 9.50537 35.0768 9.50537C35.9979 9.50537 36.7435 10.252 36.7435 11.1731V17.8454C36.7435 18.7654 35.9979 19.5131 35.0768 19.5131Z" fill="#FF6D1C"/>
<path d="M9.60362 42.3063H1.82585C0.905846 42.3063 0.15918 41.5596 0.15918 40.6385C0.15918 39.7174 0.905846 38.9707 1.82585 38.9707H9.60362C10.5236 38.9707 11.2703 39.7174 11.2703 40.6385C11.2703 41.5596 10.5236 42.3063 9.60362 42.3063Z" fill="#FF6D1C"/>
<path d="M67.381 42.3063H59.6032C58.6832 42.3063 57.9365 41.5596 57.9365 40.6385C57.9365 39.7174 58.6832 38.9707 59.6032 38.9707H67.381C68.301 38.9707 69.0476 39.7174 69.0476 40.6385C69.0476 41.5596 68.301 42.3063 67.381 42.3063Z" fill="#FF6D1C"/>
</svg>

<svg width="70" height="70" fill="none" xmlns="http://www.w3.org/2000/svg"><path d="M32.705 44.849l14.842-19.351L37.469 47.71a2.795 2.795 0 11-5.091-2.315 2.81 2.81 0 01.327-.546z" fill="#FF6D1C"/><path d="M64.048 61.209H5.954a1.67 1.67 0 01-1.422-.796C1.61 55.64 0 49.635 0 43.5 0 24.362 15.701 8.792 35.001 8.792 54.3 8.792 70 24.409 70 43.604c0 6.156-1.567 11.968-4.531 16.808a1.667 1.667 0 01-1.421.797zm-57.14-3.336h56.186c2.34-4.152 3.573-9.064 3.573-14.269 0-17.357-14.205-31.478-31.666-31.478C17.54 12.128 3.333 26.2 3.333 43.5c0 5.188 1.265 10.253 3.575 14.373z" fill="#FF6D1C"/><path d="M35.077 19.513c-.92 0-1.667-.747-1.667-1.668v-6.672a1.667 1.667 0 113.334 0v6.672c0 .92-.746 1.668-1.667 1.668zM9.604 42.306H1.826a1.668 1.668 0 010-3.335h7.778a1.668 1.668 0 010 3.335zm57.777 0h-7.778a1.668 1.668 0 010-3.335h7.778a1.667 1.667 0 010 3.335z" fill="#FF6D1C"/></svg>
